X:102
T:Tone Rowe
C:Brendan Tonra
M:6/8
R:jig
K:D
L:1/8
"D"~F3 AFE|EDB, A,B,D|~F3 "G"GFG|"A"ABF AFE|
"D"~F3 AFE|EDB, A,B,D|~F3 "G"GFG|1"A"AFD "D"D3:|2"A"AFD "D"D2||
e|"D"f2 d dcd |"G"edc Bcd|"D"~f3 "Bm"dcd|"Em"ABF "A"Ade|
"D"f2d dcd|"G"edc Bcd|"D"faf "G"gec|1"A"dAF "D"D2:|2"A"dAF "D"D3|]
